src/16/devices/drive-harddisk.svg

<svg xmlns="http://www.w3.org/2000/svg" width="16" height="16" version="1.1" viewBox="0 0 16 16">
 <defs>
  <style id="current-color-scheme" type="text/css">
   .ColorScheme-Text { color:#727272; } .ColorScheme-Highlight { color:#5294e2; }
  </style>
 </defs>
 <path style="fill:currentColor" class="ColorScheme-Text" d="M 3,1 C 2,1 2,2 2,2 V 14 C 2,14 2,15 3,15 H 13 C 13,15 14,15 14,14 V 2 C 14,2 14,1 13,1 Z M 8,3 C 10.209,3 12,4.7909 12,7 12,9.2091 10.209,11 8,11 H 4 V 7 C 4,4.7909 5.7909,3 8,3 Z M 8,5 C 6.8954,5 6,5.8954 6,7 6,8.1046 6.8954,9 8,9 9.1046,9 10,8.1046 10,7 10,5.8954 9.1046,5 8,5 Z"/>
</svg>

<svg xmlns="http://www.w3.org/2000/svg" width="16" height="16"><defs><style id="current-color-scheme" type="text/css"></style></defs><path d="M3 1C2 1 2 2 2 2v12s0 1 1 1h10s1 0 1-1V2s0-1-1-1zm5 2a4 4 0 0 1 0 8H4V7a4 4 0 0 1 4-4zm0 2a2 2 0 1 0 0 4 2 2 0 0 0 0-4z" fill="currentColor" color="#727272"/></svg>
